icons/copyleft-line.svg

<svg width="24" height="24" fill="none" xmlns="http://www.w3.org/2000/svg"><g clip-path="url(#a)"><path d="M12 22C6.48 22 2 17.52 2 12S6.48 2 12 2s10 4.48 10 10-4.48 10-10 10Zm0-2c4.42 0 8-3.58 8-8s-3.58-8-8-8-8 3.58-8 8 3.58 8 8 8Zm0-3a4.998 4.998 0 0 1-4.288-2.428l1.714-1.029A3 3 0 0 0 12 15c1.658 0 3-1.342 3-3s-1.342-3-3-3a2.997 2.997 0 0 0-2.573 1.456L7.712 9.428A5.002 5.002 0 0 1 17 12c0 2.76-2.24 5-5 5Z" /></g><defs><clipPath id="a"><path fill="#fff" d="M0 0h24v24H0z"/></clipPath></defs></svg>

<svg xmlns="http://www.w3.org/2000/svg" width="24" height="24" fill="none"><g clip-path="url(#a)"><g><path fill="#121212" d="M12 22C6.48 22 2 17.52 2 12C2 6.48 6.48 2 12 2C17.52 2 22 6.48 22 12C22 17.52 17.52 22 12 22ZM12 20C16.42 20 20 16.42 20 12C20 7.58 16.42 4 12 4C7.58 4 4 7.58 4 12C4 16.42 7.58 20 12 20ZM12 17C10.18 17 8.587 16.027 7.712 14.572L9.426 13.543C9.951 14.416 10.907 15 12 15C13.658 15 15 13.658 15 12C15 10.342 13.658 9 12 9C10.907 9 9.952 9.583 9.427 10.456L7.712 9.428C8.587 7.973 10.18 7 12 7C14.76 7 17 9.24 17 12C17 14.76 14.76 17 12 17Z"/></g></g><defs><clipPath id="a"><rect width="24" height="24" fill="white"/></clipPath></defs></svg>
